X:1
T:Krepolska efter Anders Svensson, Slimminge
T:(SvL Skne nr. 1021)
S:efter Anders Svensson
R:Polska
Z:Patrik Mnsson, 2008-11-24
O:Slimminge, Skne
N:http://www.ullarp.com/Stefan/img/tunes/1021.gif
M:3/4
L:1/8
K:D
|: a>g ee gg | g>f d2 d>f | e>c Ac d>f | a2 ab a2 | a>g ee gg | g>f d2 d>f |
e>c A2 c2 | BB A2 A2 :: e>c A2 c2 | BG A2 A2 | e>c A2 c2 | BG A2 A2 :|
